X:1
T:F Major Abraham Wood, 1779
T:Isaac Watts, 1707 (Hymn 148, Book 1)       66. 66. 88.
T:Royalston
T:Transcribed from Billings' Music in Miniature, 1779.
%%score [ 1 2 3 4 ]
L:1/8
Q:1/4=140
M:4/4
K:F
V:1 treble nm="Tr." snm="Tr."
V:2 treble nm="C." snm="C."
V:3 treble-8 nm="T." snm="T."
V:4 bass nm="B." snm="B."
V:1
 c2 | c2 A2 G2 F2 | F4 z2 A2 | B2 d2 c2 =B2 | c4 z2 G2 | F2 A2 d2 =B2 | c4 z2 A2 | F2 F2 B2 c2 | %8
w: 1.~With|cheer- ful voice I|sing The|ti- tles of my|Lord, And|bor- row all the|names Of|ho- nor from his|
w: 2.~In|Je- sis we be-|hold His|Fa- ther's glo- rious|face, Shi-|ning for- ev- er|bright, With|mild and love- ly|
 c4 z2 c2 | (F>G A2) B2 c2- | c2 A2 B2 B2 | A2 cB A2 B2 | c2 cB/A/ d2 c2 | [Ac]4 |] %14
w: word; Na-|ture~ _ _ and art~|_ can ne'er sup-|ply Suf- * fi- cient|forms of * * ma- jes-|ty.|
w: rays; Th'e-|ter- * * nal God's~|_ e- ter- nal|Son In- * he- rits|and par- * * takes the|throne.|
V:2
 F2 | F2 F2 G2 F2 | A4 z2 A2 | F2 F2 A2 G2 | G4 z2 G2 | A2 A2 G2 GF | E4 z2 F2 | F2 A2 G2 G2 | %8
w: 3.~The|sove- reign King of|kings, The|Lord of lords most|high, Writes|his own name up- *|on His|gar- ment and his|
w: 4.~Where|pro- mi- ses and|grace Can|nei- ther melt nor|move, The|an- gry Lamb re- *|sents The|in- juries of his|
 A4 z2 AG | F4 G2 A2- | A2 F2 F2 F2 | A2 AG F2 F2 | E2 F2 F2 [EG]2 | [FA]4 |] %14
w: thigh: His *|name is called~|_ The Word of|God; He * rules the|earth with ir- on|rod.|
w: love; A- *|wakes his wrath~|_ with- out de-|lay, As * li- ons|roar, and tear the|prey.|
V:3
 F2 | c2 f2 e2 d2 | c4 z2 c2 | d2 f2 cB A2 | G4 z2 c2 | c2 A2 B2 d2 | c4 z2 c2 | d2 c2 d2 e2 | %8
w: 5.~But|when for works of|peace The|great Re- dee- * mer|comes, What|gen- tle cha- rac-|ters, What|ti- tles he as-|
w: 6.~Im-|mense com- pas- sion|reigns in|our Im- man- * uel's|heart, When|he de- scends to|act The|me- di- a- tor's|
 f4 z2 fe | (d2 c2) de f2- | f2 c2 d2 d2 | c2 AB c2 BA | G2 AB/c/ BA G2 | F4 |] %14
w: sumes! Light *|of~ _ the * world~|_ and life of|men; Nor * will he *|bear those * * names * in|vain.|
w: part; He *|is~ _ a * friend~|_ and bro- ther|too; Di- * vine- ly *|kind, di- * * vine- * ly|true.|
V:4
 F,2 | F,2 F,2 C,2 D,2 | F,4 z2 F,2 | D,2 D,2 F,2 G,2 | C,4 z2 C,2 | F,2 F,2 G,2 G,2 | C,4 z2 F,2 | %7
w: 7.~At|length the Lord the|Judge His|aw- ful throne a-|scends, And|drives the re- bels|far From|
 B,2 A,2 B,2 C2 | F,4 z2 F,2 | (B,2 A,2) G,2 F,2- | F,2 F,2 D,2 D,2 | F,2 F,G, A,2 G,F, | %12
w: fa- vo- rites and|friends; Then|shall * the saints~|_ com- plete- ly|prove The * heights and *|
 C,2 A,,G,,/F,,/ B,,2 C,2 | F,,4 |] %14
w: depths of * * all his|love.|

